X:1
T:Stay, My Charmer, Can You Leave Me
M:4/4
L:1/8
K:C
 c2B-A G2F-E| F2 G3/2- _B/2 A2 G2| c2 d3/2- e/2 f2 e3/2- d/2| e2c/2-e/2-d/2-c/2 B3/2- A/2 G2|\
 f2 e3/2- f/2 d2e-c| B2c/2-e/2-d/2-e/2 f2e-d| c2 B3/2- A/2 G2 C3/2- F/2|\
 E2 D3/2- C/2 C4| f2 e3/2- f/2 d2e-c| G2 d3/2- c/2 c4|

